dist/assets/img/artifact-parts/backdrop-result.svg

<svg width="969" height="667" viewBox="0 0 969 667" fill="none" xmlns="http://www.w3.org/2000/svg">
<g filter="url(#filter0_di_2_3)">
<path fill-rule="evenodd" clip-rule="evenodd" d="M793.896 496.576C686.247 590.678 396.333 597.949 255.923 526.489C220.998 508.714 190.84 489.936 165.843 469.795C161.466 466.269 155.492 465.574 150.219 467.521C138.602 471.81 125.124 474.067 113.657 469.548C113.56 469.51 113.563 469.372 113.661 469.338C116.014 468.518 119.135 467.43 122.68 465.984C136.005 460.55 136.717 443.857 127.328 432.951C76.9925 374.482 65.2417 304.761 99.6415 216.912C148.433 92.311 239.834 60.7225 430.082 69.3212C451.577 70.2927 474.581 70.6427 498.376 71.0048C621.502 72.8782 765.815 75.0739 831.942 165.368C921.773 288.031 899.785 404.013 793.896 496.576Z" fill="white"/>
</g>
<defs>
<filter id="filter0_di_2_3" x="0" y="0" width="968.028" height="666.403" filterUnits="userSpaceOnUse" color-interpolation-filters="sRGB">
<feFlood flood-opacity="0" result="BackgroundImageFix"/>
<feColorMatrix in="SourceAlpha" type="matrix" values="0 0 0 0 0 0 0 0 0 0 0 0 0 0 0 0 0 0 127 0" result="hardAlpha"/>
<feOffset dy="12"/>
<feGaussianBlur stdDeviation="40"/>
<feComposite in2="hardAlpha" operator="out"/>
<feColorMatrix type="matrix" values="0 0 0 0 0.909804 0 0 0 0 0.313726 0 0 0 0 0.470588 0 0 0 1 0"/>
<feBlend mode="normal" in2="BackgroundImageFix" result="effect1_dropShadow_2_3"/>
<feBlend mode="normal" in="SourceGraphic" in2="effect1_dropShadow_2_3" result="shape"/>
<feColorMatrix in="SourceAlpha" type="matrix" values="0 0 0 0 0 0 0 0 0 0 0 0 0 0 0 0 0 0 127 0" result="hardAlpha"/>
<feOffset dy="-4"/>
<feGaussianBlur stdDeviation="4"/>
<feComposite in2="hardAlpha" operator="arithmetic" k2="-1" k3="1"/>
<feColorMatrix type="matrix" values="0 0 0 0 0.909804 0 0 0 0 0.313726 0 0 0 0 0.470588 0 0 0 0.48 0"/>
<feBlend mode="normal" in2="shape" result="effect2_innerShadow_2_3"/>
</filter>
</defs>
</svg>

<svg width="969" height="667" viewBox="0 0 969 667" fill="none" xmlns="http://www.w3.org/2000/svg"><g filter="url(#filter0_di_2_3)"><path fill-rule="evenodd" clip-rule="evenodd" d="M793.896 496.576c-107.649 94.102-397.563 101.373-537.973 29.913-34.925-17.775-65.083-36.553-90.08-56.694-4.377-3.526-10.351-4.221-15.624-2.274-11.617 4.289-25.095 6.546-36.562 2.027a.112.112 0 01.004-.21c2.353-.82 5.474-1.908 9.019-3.354 13.325-5.434 14.037-22.127 4.648-33.033-50.335-58.469-62.086-128.19-27.687-216.039 48.792-124.601 140.193-156.19 330.441-147.59 21.495.97 44.499 1.32 68.294 1.683 123.126 1.873 267.439 4.069 333.566 94.363 89.831 122.663 67.843 238.645-38.046 331.208z" fill="#fff"/></g><defs><filter id="filter0_di_2_3" x="0" y="0" width="968.028" height="666.403" filterUnits="userSpaceOnUse" color-interpolation-filters="sRGB"><feFlood flood-opacity="0" result="BackgroundImageFix"/><feColorMatrix in="SourceAlpha" values="0 0 0 0 0 0 0 0 0 0 0 0 0 0 0 0 0 0 127 0" result="hardAlpha"/><feOffset dy="12"/><feGaussianBlur stdDeviation="40"/><feComposite in2="hardAlpha" operator="out"/><feColorMatrix values="0 0 0 0 0.909804 0 0 0 0 0.313726 0 0 0 0 0.470588 0 0 0 1 0"/><feBlend in2="BackgroundImageFix" result="effect1_dropShadow_2_3"/><feBlend in="SourceGraphic" in2="effect1_dropShadow_2_3" result="shape"/><feColorMatrix in="SourceAlpha" values="0 0 0 0 0 0 0 0 0 0 0 0 0 0 0 0 0 0 127 0" result="hardAlpha"/><feOffset dy="-4"/><feGaussianBlur stdDeviation="4"/><feComposite in2="hardAlpha" operator="arithmetic" k2="-1" k3="1"/><feColorMatrix values="0 0 0 0 0.909804 0 0 0 0 0.313726 0 0 0 0 0.470588 0 0 0 0.48 0"/><feBlend in2="shape" result="effect2_innerShadow_2_3"/></filter></defs></svg>
